X: 3331
T: Mrs Macleod of Elanreoch's   Strathspey
%R: strathspey
B: Niel Gow & Sons "A Third Collection of Strathspey Reels, etc." v.3 p.33 #1
Z: 2022 John Chambers <jc:trillian.mit.edu>
M: C
L: 1/8
K: D
% - - - - - - - - - -
V: 1 staves=2
A |\
d>gTfe d>BAd | B<Fd>F BEEc | Td>efd f<ae<f | d/c/B/A/ {c}dF D/D/D D :| (d//c//B/) | A<DA<F ADDd | B/A/B/c/ dF BEEd |
A<DA<F ADDd | B/A/B/c/ dF D/D/D Dd || A<DA<F ADDd | B/A/B/c/ dF BEEd | A<DA<F D/E/F/G/ Ag | Tf>def d/d/d d |]
% - - - - - - - - - -
% Voice 2 preserves the staff layout in the book.
V: 2 clef=bass middle=d
z |\
d2d2 d2d2 | d2f2 g2a2 | f2d2 d2A2 | G2A2 d2D :| z | d2d2 d2d2 |
e2e2 e2e2 | d2d2 d2f2 | g2a2 d2d2 || d2d2 d2d2 | e2e2 e2e2 | d2d2 d2g2 | a2A2 d2d |]


